public/icons/add.svg

<svg width="64" height="64" viewBox="0 0 64 64" fill="none" xmlns="http://www.w3.org/2000/svg">
<path d="M59.2702 36.6942H36.6952V59.2692C36.6952 61.7525 34.6634 63.7842 32.1802 63.7842C29.6969 63.7842 27.6652 61.7525 27.6652 59.2692V36.6942H5.0902C2.60695 36.6942 0.575195 34.6625 0.575195 32.1792C0.575195 29.696 2.60695 27.6642 5.0902 27.6642H27.6652V5.08922C27.6652 2.60597 29.6969 0.574219 32.1802 0.574219C34.6634 0.574219 36.6952 2.60597 36.6952 5.08922V27.6642H59.2702C61.7534 27.6642 63.7852 29.696 63.7852 32.1792C63.7852 34.6625 61.7534 36.6942 59.2702 36.6942Z" fill="#147454"/>
</svg>

<svg version="1.2" xmlns="http://www.w3.org/2000/svg" viewBox="0 0 64 64" width="64" height="64"><style>.a{fill:#147454}</style><path class="a" d="m59.3 36.7h-22.6v22.6c0 2.5-2 4.5-4.5 4.5-2.5 0-4.5-2-4.5-4.5v-22.6h-22.6c-2.5 0-4.5-2-4.5-4.5 0-2.5 2-4.5 4.5-4.5h22.6v-22.6c0-2.5 2-4.5 4.5-4.5 2.5 0 4.5 2 4.5 4.5v22.6h22.6c2.5 0 4.5 2 4.5 4.5 0 2.5-2 4.5-4.5 4.5z"/></svg>
